X: 0
P: Quindaro Hornpipe
R: reel
C: New England
C: arr. T. Traub 6-26-03
M: 4/4
L: 1/8
K: G
|: gf|"G"g2 G2 G2 BG|"D"FADF "G"G2 Bc|"G"dBed "C"cBAG|"D"FA D2 D2 gf|"G"g2 G2 G2 BG|"D"FADF "Em"G2 AB|"C"cedc "D"BAGF| "G"G2 B2 G2 :|
|: dc|"G"BgBc d2 cB|"Am"caAB "D7"c2 BA|"G"Bded "C"cBAG|"D"FA D2 D2 ga|"G"bgfg dgfg|"Em"bgfg dgfg|"C"edcB "D"AGFA |"G"G2 B2 G2 :|